images/cross-platform-icon.svg

<svg width="89" height="183" viewBox="0 0 89 183" fill="none" xmlns="http://www.w3.org/2000/svg">
<path d="M65.5352 181.532C67.2019 180.608 68.2359 178.576 68.2359 175.668L87.4776 165.002C87.4776 167.91 86.4435 169.942 84.7768 170.866L65.5352 181.532Z" fill="#0D0B33" stroke="#0D0B33" stroke-width="1.34" stroke-linejoin="round"/>
<path d="M68.2344 175.668V56.9939L87.476 46.3281V165.002L68.2344 175.668Z" fill="#0D0B33" stroke="#0D0B33" stroke-width="1.34" stroke-linejoin="round"/>
<path fill-rule="evenodd" clip-rule="evenodd" d="M3.55592 12.2277C5.17945 11.3281 7.40294 11.4792 9.85553 12.8952H9.85738L9.85547 12.8963L59.2312 41.4034L78.4728 30.7376L29.0972 2.2305V2.22941C26.644 0.813051 24.42 0.66219 22.7963 1.56254L3.55592 12.2277Z" fill="#B4A1FF"/>
<path d="M9.85553 12.8952L9.52052 13.4755C9.62238 13.5343 9.73792 13.5652 9.85553 13.5652V12.8952ZM3.55592 12.2277L3.23109 11.6417C2.90748 11.8211 2.79054 12.2288 2.96989 12.5524C3.14925 12.8761 3.55699 12.993 3.88064 12.8137L3.55592 12.2277ZM9.85738 12.8952L10.1822 13.4812C10.4493 13.3331 10.5825 13.0231 10.506 12.7275C10.4296 12.4318 10.1628 12.2252 9.85738 12.2252V12.8952ZM9.85547 12.8963L9.53063 12.3103C9.31945 12.4274 9.1876 12.649 9.18549 12.8904C9.18339 13.1319 9.31136 13.3558 9.52047 13.4765L9.85547 12.8963ZM59.2312 41.4034L58.8962 41.9836C59.0999 42.1012 59.3503 42.1034 59.556 41.9894L59.2312 41.4034ZM78.4728 30.7376L78.7977 31.3236C79.0089 31.2065 79.1407 30.9849 79.1428 30.7434C79.1449 30.502 79.017 30.2781 78.8078 30.1573L78.4728 30.7376ZM29.0972 2.2305H28.4272C28.4272 2.46987 28.5549 2.69105 28.7622 2.81074L29.0972 2.2305ZM29.0972 2.22941H29.7672C29.7672 1.99004 29.6395 1.76885 29.4322 1.64917L29.0972 2.22941ZM22.7963 1.56254L23.1211 2.14853L23.1212 2.14848L22.7963 1.56254ZM10.1905 12.315C7.61742 10.8294 5.13238 10.5882 3.23119 11.6416L3.88064 12.8137C5.22652 12.068 7.18847 12.129 9.52052 13.4755L10.1905 12.315ZM9.85738 12.2252H9.85553V13.5652H9.85738V12.2252ZM10.1803 13.4823L10.1822 13.4812L9.53255 12.3092L9.53063 12.3103L10.1803 13.4823ZM59.5662 40.8231L10.1905 12.316L9.52047 13.4765L58.8962 41.9836L59.5662 40.8231ZM78.148 30.1516L58.9064 40.8174L59.556 41.9894L78.7977 31.3236L78.148 30.1516ZM28.7622 2.81074L78.1378 31.3178L78.8078 30.1573L29.4322 1.65026L28.7622 2.81074ZM28.4272 2.22941V2.2305H29.7672V2.22941H28.4272ZM23.1212 2.14848C24.4672 1.40213 26.4295 1.46289 28.7622 2.80964L29.4322 1.64917C26.8584 0.163214 24.3728 -0.0777489 22.4714 0.976595L23.1212 2.14848ZM3.88074 12.8137L23.1211 2.14853L22.4715 0.976542L3.23109 11.6417L3.88074 12.8137ZM3.87961 12.8143L3.88083 12.8136L3.231 11.6417L3.22977 11.6424L3.87961 12.8143Z" fill="#0D0B33"/>
<path d="M59.2344 41.4021C64.2058 44.2724 68.236 51.2529 68.236 56.9934L87.4776 46.3276C87.4776 40.587 83.4475 33.6066 78.476 30.7363L59.2344 41.4021Z" fill="#4A21EF" stroke="#0D0B33" stroke-width="1.34" stroke-linejoin="round"/>
<path d="M59.2328 41.4025C64.2043 44.2728 68.2344 51.2532 68.2344 56.9938V175.668C68.2344 181.409 64.2043 183.735 59.2328 180.865L9.85709 152.358C4.88563 149.488 0.855468 142.507 0.855469 136.767L0.855476 18.0925C0.855476 12.352 4.88563 10.0252 9.85709 12.8954L59.2328 41.4025Z" fill="#8674F5" stroke="#0D0B33" stroke-width="1.34" stroke-linejoin="round"/>
<path d="M60.6755 52.0566L60.6755 171.577L8.42092 141.408L8.4209 21.8874L22.5065 30.0198L22.5065 35.1211L43.9468 47.4336V42.3983L60.6755 52.0566Z" fill="#F7F6FF" stroke="#0D0B33" stroke-width="1.34" stroke-linejoin="round"/>
<path d="M12.1223 101.553L3.55469 86.7133L12.3009 81.8652L20.8685 96.7047L12.1223 101.553Z" fill="#4A21EF" stroke="#0D0B33" stroke-width="1.34" stroke-linejoin="round"/>
<path d="M3.55469 86.7133L9.98036 90.4232L18.7266 85.5751L12.3009 81.8652L3.55469 86.7133Z" fill="#0D0B33" stroke="#0D0B33" stroke-width="1.34" stroke-linejoin="round"/>
<path d="M19.0756 97.5395L12.125 101.552L20.8712 96.7043L27.8218 92.6914L19.0756 97.5395Z" fill="#4A21EF" stroke="#0D0B33" stroke-width="1.34" stroke-linejoin="round"/>
<path d="M18.4688 108.441C20.2465 110.58 22.3027 112.386 24.466 113.635L33.2122 108.787C31.0489 107.538 28.9927 105.732 27.2149 103.593L18.4688 108.441Z" fill="#0D0B33" stroke="#0D0B33" stroke-width="1.34" stroke-linejoin="round"/>
<path d="M13.7405 100.619C13.3728 100.831 13.0487 101.018 19.074 97.5395L27.8202 92.6914L22.4867 95.7708L13.7405 100.619Z" fill="#4A21EF" stroke="#0D0B33" stroke-width="1.34" stroke-linejoin="round"/>
<path d="M20.6928 96.6059L13.7422 100.619L22.4884 95.7707L29.439 91.7578L20.6928 96.6059Z" fill="#4A21EF" stroke="#0D0B33" stroke-width="1.34" stroke-linejoin="round"/>
<path d="M36.0094 119.326C32.817 121.095 28.5452 120.93 23.9688 118.288L32.7149 113.439C37.2914 116.082 41.5632 116.247 44.7556 114.478L36.0094 119.326Z" fill="#4A21EF" stroke="#0D0B33" stroke-width="1.34" stroke-linejoin="round"/>
<path d="M14.2656 92.8969L20.6913 96.6068L29.4375 91.7587L23.0118 88.0488L14.2656 92.8969Z" fill="#0D0B33" stroke="#0D0B33" stroke-width="1.34" stroke-linejoin="round"/>
<path d="M9.98438 90.422C9.98438 84.8429 12.1241 80.8374 15.478 78.979L24.2219 74.1321C20.8693 75.9912 18.7306 79.9961 18.7306 85.5739L9.98438 90.422Z" fill="#4A21EF" stroke="#0D0B33" stroke-width="1.34" stroke-linejoin="round"/>
<path d="M24.4688 113.634C27.9671 115.654 31.1422 115.867 33.4611 114.581L42.2056 109.734C39.8867 111.019 36.7124 110.805 33.2149 108.786L24.4688 113.634Z" fill="#0D0B33" stroke="#0D0B33" stroke-width="1.34" stroke-linejoin="round"/>
<path d="M18.1246 84.5297C15.744 85.8498 14.2656 88.7496 14.2656 92.8965L23.0118 88.0484C23.0118 83.9015 24.4902 81.0017 26.8708 79.6816L18.1246 84.5297Z" fill="#0D0B33" stroke="#0D0B33" stroke-width="1.34" stroke-linejoin="round"/>
<path d="M33.4609 113.584C35.8415 112.264 37.3199 109.364 37.3199 105.217L46.0661 100.369C46.0661 104.516 44.5877 107.416 42.2071 108.736L33.4609 113.584Z" fill="#4A21EF" stroke="#0D0B33" stroke-width="1.34" stroke-linejoin="round"/>
<path d="M41.6063 107.721C41.6063 113.405 38.532 118.43 35.1212 120.334L43.8653 115.454C47.2769 113.551 50.3524 108.526 50.3524 102.841L41.6063 107.721Z" fill="#0D0B33" stroke="#0D0B33" stroke-width="1.34" stroke-linejoin="round"/>
<path d="M37.3163 105.216L30.8906 101.506L39.6368 96.6582L46.0625 100.368L37.3163 105.216Z" fill="#4A21EF" stroke="#0D0B33" stroke-width="1.34" stroke-linejoin="round"/>
<path d="M30.8906 101.508L37.8412 97.4946L46.5874 92.6465L39.6368 96.6594L30.8906 101.508Z" fill="#4A21EF" stroke="#0D0B33" stroke-width="1.34" stroke-linejoin="round"/>
<path d="M34.5078 103.573C38.0751 101.513 39.4168 100.738 39.8415 100.493L39.8415 100.493C39.9915 100.407 40.1342 100.324 39.8415 100.493L48.5877 95.6451C48.9553 95.4328 49.2795 95.2457 43.254 98.7245L34.5078 103.573Z" fill="#4A21EF" stroke="#0D0B33" stroke-width="1.34" stroke-linejoin="round"/>
<path d="M48.0272 111.4L41.6016 107.69L50.3478 102.842L56.7734 106.552L48.0272 111.4Z" fill="#4A21EF" stroke="#0D0B33" stroke-width="1.34" stroke-linejoin="round"/>
<path d="M36.7466 85.8618L33.1172 88.6708L41.8634 83.8227L45.4928 81.0137L36.7466 85.8618Z" fill="#4A21EF" stroke="#0D0B33" stroke-width="1.34" stroke-linejoin="round"/>
<path fill-rule="evenodd" clip-rule="evenodd" d="M27.6654 78.0671C23.0298 75.3907 18.3623 76.284 15.1445 78.0671L24.8945 71.989C28.1123 70.2059 31.776 70.5426 36.4116 73.219L36.4111 73.2192L36.4142 73.2187C39.7769 75.1602 42.859 77.5633 45.4935 81.0134L36.7473 85.8615C34.1128 82.4113 31.0307 80.0083 27.668 78.0668L27.6693 78.0649L27.6654 78.0671Z" fill="#4A21EF"/>
<path d="M15.1445 78.0671L14.7901 77.4985C14.4818 77.6907 14.3828 78.0936 14.567 78.4068C14.7512 78.7199 15.1515 78.8292 15.4693 78.6531L15.1445 78.0671ZM27.6654 78.0671L27.3304 78.6473C27.5341 78.7649 27.7845 78.7671 27.9902 78.6531L27.6654 78.0671ZM24.8945 71.989L24.5698 71.4029C24.5597 71.4085 24.5498 71.4143 24.5401 71.4204L24.8945 71.989ZM36.4116 73.219L36.7364 73.805C36.9476 73.6879 37.0794 73.4663 37.0815 73.2248C37.0836 72.9834 36.9557 72.7595 36.7466 72.6387L36.4116 73.219ZM36.4111 73.2192L36.0863 72.6332C35.802 72.7908 35.6718 73.1299 35.7776 73.4373C35.8834 73.7447 36.1947 73.9318 36.5158 73.881L36.4111 73.2192ZM36.4142 73.2187L36.7492 72.6385C36.6163 72.5618 36.4611 72.533 36.3095 72.557L36.4142 73.2187ZM45.4935 81.0134L45.8184 81.5994C45.9887 81.505 46.1095 81.3412 46.1493 81.1506C46.1892 80.9601 46.1442 80.7616 46.026 80.6068L45.4935 81.0134ZM36.7473 85.8615L36.2148 86.2681C36.4166 86.5323 36.7815 86.6087 37.0722 86.4475L36.7473 85.8615ZM27.668 78.0668L27.1158 77.6874C27.01 77.8413 26.9733 78.0325 27.0145 78.2147C27.0557 78.3969 27.1712 78.5537 27.333 78.6471L27.668 78.0668ZM27.6693 78.0649L28.2215 78.4444C28.3976 78.1882 28.3743 77.8445 28.1652 77.6144C27.9562 77.3843 27.6164 77.3282 27.3445 77.4789L27.6693 78.0649ZM15.4693 78.6531C18.5388 76.9522 22.9495 76.118 27.3304 78.6473L28.0004 77.4868C23.1101 74.6634 18.1859 75.6158 14.8198 77.481L15.4693 78.6531ZM24.5401 71.4204L14.7901 77.4985L15.499 78.6356L25.249 72.5575L24.5401 71.4204ZM36.7466 72.6387C31.9978 69.897 28.0706 69.4631 24.5698 71.4029L25.2193 72.575C28.1541 70.9488 31.5542 71.1883 36.0766 73.7992L36.7466 72.6387ZM36.7359 73.8052L36.7364 73.805L36.0868 72.633L36.0863 72.6332L36.7359 73.8052ZM36.3095 72.557L36.3064 72.5575L36.5158 73.881L36.5189 73.8805L36.3095 72.557ZM46.026 80.6068C43.3256 77.0704 40.1691 74.613 36.7492 72.6385L36.0792 73.799C39.3848 75.7075 42.3924 78.0561 44.961 81.42L46.026 80.6068ZM37.0722 86.4475L45.8184 81.5994L45.1687 80.4274L36.4225 85.2755L37.0722 86.4475ZM27.333 78.6471C30.6386 80.5556 33.6462 82.9042 36.2148 86.2681L37.2798 85.4549C34.5795 81.9185 31.4229 79.4611 28.003 77.4866L27.333 78.6471ZM27.1171 77.6854L27.1158 77.6874L28.2201 78.4463L28.2215 78.4444L27.1171 77.6854ZM27.9902 78.6531L27.9941 78.6509L27.3445 77.4789L27.3405 77.4811L27.9902 78.6531Z" fill="#0D0B33"/>
<path d="M39.4609 96.561L48.0285 111.4L56.7747 106.552L48.2071 91.7129L39.4609 96.561Z" fill="#4A21EF" stroke="#0D0B33" stroke-width="1.34" stroke-linejoin="round"/>
<path fill-rule="evenodd" clip-rule="evenodd" d="M27.1155 83.4765C20.0258 79.3833 14.2641 84.7098 14.2641 92.8962L20.6898 96.6061L12.1223 101.553L3.55469 86.7131L9.98036 90.423C9.98036 79.4913 18.1957 72.6008 27.6628 78.0666C31.0256 80.0081 34.1077 82.4111 36.7422 85.8613L33.1128 88.6703C31.335 86.531 29.2788 84.7255 27.1155 83.4765ZM30.8912 101.507L39.4588 96.5602L48.0263 111.4L41.6007 107.69C41.6007 118.621 33.4369 124.754 23.9697 119.288C20.607 117.347 17.1267 114.749 14.4922 111.299L18.4682 108.442C20.246 110.582 22.3022 112.387 24.4655 113.636C31.5552 117.729 37.3169 113.403 37.3169 105.217L30.8912 101.507Z" fill="#F7F6FF" stroke="#0D0B33" stroke-width="1.34" stroke-linejoin="round"/>
</svg>

<svg xmlns="http://www.w3.org/2000/svg" width="89" height="183" fill="none"><path fill="#0D0B33" stroke="#0D0B33" stroke-linejoin="round" stroke-width="1.34" d="M65.535 181.532c1.667-.924 2.7-2.956 2.7-5.864l19.243-10.666c0 2.908-1.034 4.94-2.701 5.864l-19.242 10.666ZM68.234 175.668V56.994l19.242-10.666v118.674l-19.242 10.666Z"/><path fill="#B4A1FF" fill-rule="evenodd" d="M3.556 12.228c1.623-.9 3.847-.749 6.3.667h.001l-.002.001 49.376 28.507 19.242-10.665L29.097 2.23c-2.453-1.417-4.677-1.568-6.3-.667L3.555 12.228Z" clip-rule="evenodd"/><path fill="#0D0B33" d="m9.856 12.895-.335.58a.67.67 0 0 0 .335.09v-.67Zm-6.3-.667-.325-.586a.67.67 0 0 0 .65 1.172l-.325-.586Zm6.301.667.325.586a.67.67 0 0 0-.325-1.256v.67Zm-.002.001-.324-.586a.67.67 0 0 0-.01 1.166l.334-.58Zm49.376 28.507-.335.58a.67.67 0 0 0 .66.006l-.325-.586Zm19.242-10.665.325.586a.67.67 0 0 0 .01-1.167l-.335.58ZM29.097 2.23h-.67c0 .24.128.461.335.58l.335-.58Zm0 0h.67a.67.67 0 0 0-.335-.58l-.335.58Zm-6.3-.667.324.586-.325-.586ZM10.19 12.315c-2.573-1.486-5.058-1.727-6.959-.673l.65 1.172c1.346-.746 3.307-.685 5.64.662l.67-1.161Zm-.333-.09h-.001v1.34h.001v-1.34Zm.323 1.257h.002l-.65-1.173-.001.001.65 1.172Zm49.386 27.341L10.19 12.316l-.67 1.16 49.376 28.508.67-1.16Zm18.582-10.671L58.906 40.817l.65 1.172 19.242-10.665-.65-1.172ZM28.762 2.81l49.376 28.507.67-1.16L29.432 1.65l-.67 1.16Zm-.335-.582v.002h1.34v-.002h-1.34Zm-5.306-.08c1.346-.747 3.309-.686 5.641.66l.67-1.16c-2.574-1.486-5.06-1.727-6.96-.672l.65 1.171ZM3.881 12.813 23.12 2.149l-.65-1.172-19.24 10.665.65 1.172Zm-.001 0-.649-1.172H3.23l.65 1.172Z"/><path fill="#4A21EF" stroke="#0D0B33" stroke-linejoin="round" stroke-width="1.34" d="M59.234 41.402c4.972 2.87 9.002 9.85 9.002 15.591l19.242-10.665c0-5.741-4.03-12.721-9.002-15.592L59.234 41.402Z"/><path fill="#8674F5" stroke="#0D0B33" stroke-linejoin="round" stroke-width="1.34" d="M59.233 41.403c4.971 2.87 9.001 9.85 9.001 15.59v118.675c0 5.741-4.03 8.067-9.001 5.197L9.857 152.358c-4.971-2.87-9.002-9.851-9.002-15.591V18.093c0-5.741 4.03-8.068 9.002-5.198l49.376 28.508Z"/><path fill="#F7F6FF" stroke="#0D0B33" stroke-linejoin="round" stroke-width="1.34" d="M60.675 52.057v119.52L8.422 141.408V21.888l14.085 8.132v5.101l21.44 12.313v-5.036l16.73 9.659Z"/><path fill="#4A21EF" stroke="#0D0B33" stroke-linejoin="round" stroke-width="1.34" d="m12.122 101.553-8.567-14.84 8.746-4.848 8.568 14.84-8.747 4.848Z"/><path fill="#0D0B33" stroke="#0D0B33" stroke-linejoin="round" stroke-width="1.34" d="m3.555 86.713 6.425 3.71 8.747-4.848-6.426-3.71-8.746 4.848Z"/><path fill="#4A21EF" stroke="#0D0B33" stroke-linejoin="round" stroke-width="1.34" d="m19.076 97.54-6.951 4.012 8.746-4.848 6.95-4.013-8.745 4.849Z"/><path fill="#0D0B33" stroke="#0D0B33" stroke-linejoin="round" stroke-width="1.34" d="M18.469 108.441c1.777 2.139 3.834 3.945 5.997 5.194l8.746-4.848c-2.163-1.249-4.22-3.055-5.997-5.194l-8.746 4.848Z"/><path fill="#4A21EF" stroke="#0D0B33" stroke-linejoin="round" stroke-width="1.34" d="m13.74 100.619 5.334-3.08 8.746-4.848-5.333 3.08-8.746 4.848Z"/><path fill="#4A21EF" stroke="#0D0B33" stroke-linejoin="round" stroke-width="1.34" d="m20.693 96.606-6.95 4.013 8.745-4.848 6.951-4.013-8.746 4.848ZM36.01 119.326c-3.193 1.769-7.465 1.604-12.041-1.038l8.746-4.849c4.576 2.643 8.848 2.808 12.04 1.039l-8.746 4.848Z"/><path fill="#0D0B33" stroke="#0D0B33" stroke-linejoin="round" stroke-width="1.34" d="m14.266 92.897 6.425 3.71 8.747-4.848-6.426-3.71-8.746 4.848Z"/><path fill="#4A21EF" stroke="#0D0B33" stroke-linejoin="round" stroke-width="1.34" d="M9.984 90.422c0-5.58 2.14-9.585 5.494-11.443l8.744-4.847c-3.353 1.86-5.491 5.864-5.491 11.442l-8.747 4.848Z"/><path fill="#0D0B33" stroke="#0D0B33" stroke-linejoin="round" stroke-width="1.34" d="M24.469 113.634c3.498 2.02 6.673 2.233 8.992.947l8.745-4.847c-2.32 1.285-5.494 1.071-8.991-.948l-8.746 4.848ZM18.125 84.53c-2.381 1.32-3.86 4.22-3.86 8.367l8.747-4.849c0-4.147 1.478-7.046 3.859-8.366l-8.746 4.848Z"/><path fill="#4A21EF" stroke="#0D0B33" stroke-linejoin="round" stroke-width="1.34" d="M33.46 113.584c2.382-1.32 3.86-4.22 3.86-8.367l8.746-4.848c0 4.147-1.478 7.047-3.859 8.367l-8.746 4.848Z"/><path fill="#0D0B33" stroke="#0D0B33" stroke-linejoin="round" stroke-width="1.34" d="M41.606 107.721c0 5.684-3.074 10.709-6.485 12.613l8.744-4.88c3.412-1.903 6.487-6.928 6.487-12.613l-8.746 4.88Z"/><path fill="#4A21EF" stroke="#0D0B33" stroke-linejoin="round" stroke-width="1.34" d="m37.316 105.216-6.425-3.71 8.746-4.848 6.425 3.71-8.746 4.848Z"/><path fill="#4A21EF" stroke="#0D0B33" stroke-linejoin="round" stroke-width="1.34" d="m30.89 101.508 6.951-4.013 8.746-4.849-6.95 4.013-8.746 4.849ZM34.508 103.573l5.334-3.08c.15-.086.292-.169 0 0l8.746-4.848-5.334 3.08-8.746 4.848ZM48.027 111.4l-6.425-3.71 8.746-4.848 6.425 3.71-8.746 4.848ZM36.747 85.862l-3.63 2.809 8.746-4.848 3.63-2.81-8.746 4.849Z"/><path fill="#4A21EF" fill-rule="evenodd" d="M27.665 78.067c-4.635-2.676-9.303-1.783-12.52 0l9.75-6.078c3.217-1.783 6.881-1.446 11.517 1.23h.002c3.363 1.941 6.445 4.344 9.08 7.794l-8.747 4.849c-2.634-3.45-5.716-5.854-9.079-7.795l.001-.002-.004.002Z" clip-rule="evenodd"/><path fill="#0D0B33" d="m15.145 78.067-.355-.568a.67.67 0 0 0 .68 1.154l-.325-.586Zm12.52 0-.335.58a.67.67 0 0 0 .66.006l-.325-.586Zm-2.77-6.078-.325-.586a.625.625 0 0 0-.03.017l.355.569Zm11.517 1.23.324.586a.67.67 0 0 0 .01-1.166l-.334.58Zm0 0-.326-.586a.67.67 0 0 0 .43 1.248l-.105-.662Zm.002 0 .335-.58a.67.67 0 0 0-.44-.082l.105.662Zm9.08 7.794.324.586a.67.67 0 0 0 .208-.992l-.533.406Zm-8.747 4.849-.532.406a.67.67 0 0 0 .857.18l-.325-.586Zm-9.079-7.795-.552-.38a.67.67 0 0 0 .217.96l.335-.58Zm.001-.002.552.38a.67.67 0 0 0-.877-.966l.325.586Zm-12.2.588c3.07-1.7 7.48-2.535 11.861-.006l.67-1.16c-4.89-2.824-9.814-1.871-13.18-.006l.65 1.172Zm9.071-7.233L14.79 77.5l.709 1.137 9.75-6.078-.709-1.138Zm12.207 1.219c-4.75-2.742-8.676-3.176-12.177-1.236l.65 1.172c2.934-1.626 6.334-1.387 10.857 1.224l.67-1.16Zm-.011 1.166-.65-1.172.65 1.172Zm-.426-1.248h-.004l.21 1.324h.003l-.21-1.324Zm9.716 8.05c-2.7-3.537-5.857-5.994-9.277-7.969l-.67 1.161c3.306 1.908 6.313 4.257 8.882 7.621l1.065-.813Zm-8.954 5.84 8.746-4.848-.65-1.172-8.745 4.848.65 1.172Zm-9.739-7.8c3.306 1.909 6.313 4.257 8.882 7.621l1.065-.813c-2.7-3.537-5.857-5.994-9.277-7.968l-.67 1.16Zm-.216-.962-.001.002 1.104.76.002-.003-1.105-.759Zm.873.968.004-.002-.65-1.172-.004.002.65 1.172Z"/><path fill="#4A21EF" stroke="#0D0B33" stroke-linejoin="round" stroke-width="1.34" d="M39.46 96.561 48.03 111.4l8.746-4.848-8.568-14.84-8.746 4.849Z"/><path fill="#F7F6FF" fill-rule="evenodd" stroke="#0D0B33" stroke-linejoin="round" stroke-width="1.34" d="M27.116 83.477c-7.09-4.094-12.852 1.233-12.852 9.42l6.426 3.71-8.568 4.946-8.567-14.84 6.425 3.71c0-10.932 8.216-17.822 17.683-12.356 3.363 1.941 6.445 4.344 9.08 7.794l-3.63 2.81c-1.778-2.14-3.834-3.946-5.997-5.195Zm3.775 18.03 8.568-4.947 8.567 14.84-6.425-3.71c0 10.931-8.164 17.064-17.631 11.598-3.363-1.941-6.843-4.539-9.478-7.989l3.976-2.857c1.778 2.14 3.834 3.945 5.997 5.194 7.09 4.093 12.852-.233 12.852-8.419l-6.426-3.71Z" clip-rule="evenodd"/></svg>
